!!!!SEGMENT: pl-wru--50044-muz--008_buchner-philipp-friedrich--plectrum-musicum-sonata-viii.krn
!!!cenid: 16xx:1809
!!!COM: Buchner, Philipp Friedrich
!!!COM-rismID: pe30013776
!!!CDT:
!!!CNT:
!!!GTL: Plectrum musicum
!!!OTL: Sonata VIII
!!!PDT: 1662
!!!AGN:
!!!SMS-siglum: PL-WRu
!!!SMS-shelfmark: 50044 Muz.
!!!SMS-shelfwork: 008 G
!!!SMS-variant:
!!!SMS-altvar:
!!!NIFC-rismSourceID: 990007465
!!!NIFC-rismChildID: 990007465
!!!NIFC-islandoraID: none
!!!URL-pdf-islandora:
!!!URL-scan: https://www.bibliotekacyfrowa.pl/dlibra/doccontent?id=116 @EN{Scan on Digital Library of University of Wroclaw} @PL{Skany w portalu Biblioteka Cyfrowa Uniwersytetu Wrocławskiego}
!!!ONB-nifc: UWAGA: Violino I: s. 10, Fagotto: s. 54-55, Bassus: s. 70, Bassus continuus: s. 85
!!!AIN: 1 fagot 1 violn
!!!key: d
**kern	**fing	**kern	**fing	**kern	**kern
*part4	*part4	*part3	*part3	*part2	*part1
*staff4	*	*staff3	*	*staff2	*staff1
*I"BASSUS CONTINUUS.	*	*I"BASSUS	*	*I"FAGOTTO	*I"VIOLINO I
*I'bc	*	*I'b	*	*I'fag	*I'vl I
*	*	*	*	*ICww	*ICstr
*	*	*	*	*Ifagot	*Ivioln
*IGcont	*	*IGcont	*	*	*
*clefF4	*	*clefF4	*	*clefF4	*clefG2
*k[]	*	*k[]	*	*k[]	*k[]
*d:	*	*d:	*	*d:	*d:
*M2/2	*	*M2/2	*	*M2/2	*M2/2
*met(C|)	*	*met(C|)	*	*met(C|)	*met(C|)
=1-	=1-	=1-	=1-	=1-	=1-
!LO:TX:b:i:t=Allegro.	!	!LO:TX:b:i:t=Allegro.	!	!LO:TX:b:i:t=Allegro.	!LO:TX:b:i:t=Allegro.
4DD/	.	4DD/	.	8D/	0r
.	.	.	.	16C/	.
.	.	.	.	16BB/	.
4FF/	6	4FF/	6	8.AA/	.
.	.	.	.	16F\	.
4GG/	.	4GG/	.	8.E\	.
.	.	.	.	16D/	.
4AA/	#	4AA/	#	8.C#X/	.
!	!	!	!	!LO:TX:t=P:problem:kreska pseudotaktowa	!
.	.	.	.	16A\	.
=2-	=2-	=2-	=2-	=2-	=2-
4D/	.	4D/	.	8F\	.
.	.	.	.	8D/	.
4E\	.	4E\	.	16E\	.
.	.	.	.	16D/	.
.	.	.	.	8E\	.
4F\	.	4F\	.	8F\	.
.	.	.	.	8F\	.
!LO:TX:t=P:problem:kreska pseudotaktowa	!	!LO:TX:t=P:problem:kreska pseudotaktowa	!	!	!
4G\	.	4G\	.	16G\	.
.	.	.	.	16F\	.
!	!	!	!	!LO:TX:t=P:problem:kreska pseudotaktowa	!
.	.	.	.	8G\	.
=3-	=3-	=3-	=3-	=3-	=3-
4A\	.	4A\	.	8A\	2r
.	.	.	.	16A\	.
.	.	.	.	16B\	.
4F\	.	4F\	.	16c\	.
.	.	.	.	8A\	.
.	.	.	.	16G\	.
4D/	.	4D/	.	8F\	8dd\
.	.	.	.	16F\	16cc\
.	.	.	.	16G\	16b\
4F\	6	4F\	6	8A\	8.a/
!	!	!	!	!LO:TX:t=P:problem:kreska pseudotaktowa	!
.	.	.	.	8F\	.
.	.	.	.	.	16ff\
=4-	=4-	=4-	=4-	=4-	=4-
4G\	6 5	4G\	6 5	16G\	8.ee\
.	.	.	.	16A\	.
.	.	.	.	8B-X\	.
.	.	.	.	.	16dd\
4A\	#	4A\	#	4A\	8.cc#X\
.	.	.	.	.	16gg\
4D/	.	4D/	.	4D/	8ff\
.	.	.	.	.	8dd\
!LO:TX:t=P:problem:kreska pseudotaktowa	!	!LO:TX:t=P:problem:kreska pseudotaktowa	!	!	!
4AA/	.	4AA/	.	4r	16ee\
.	.	.	.	.	16dd\
!	!	!	!	!	!LO:TX:t=P:problem:kreska pseudotaktowa
.	.	.	.	.	8ee\
*	*	*	*	*custos:D	*
!	!	!	!	!LO:LB:g=original	!
=5-	=5-	=5-	=5-	=5-	=5-
4D/	.	4D/	.	8r	8ff\
.	.	.	.	8D/	8ff\
8.C/	.	8.C/	.	16Cny/	16gg\
.	.	.	.	16D/	16ff\
.	.	.	.	16C/	8gg\
16BB/	.	16BB/	.	16BB/	.
8AA/	.	8AA/	.	8AA/	8aa\
8A\	.	8A\	.	8A\	16aa\
.	.	.	.	.	16bb\
4F\	.	4F\	.	16F\	16ccc\
.	.	.	.	16G\	8aa\
.	.	.	.	16F\	.
!	!	!	!	!LO:TX:t=P:problem:kreska pseudotaktowa	!LO:TX:t=P:problem:kreska pseudotaktowa
.	.	.	.	16E\	16gg\
=6-	=6-	=6-	=6-	=6-	=6-
2D/	.	2D/	.	8D/	8ff\
.	.	.	.	16D/	16ff\
.	.	.	.	16E\	16gg\
.	.	.	.	16F\	16aa\
.	.	.	.	8D/	8ff\
.	.	.	.	16C/	16ee\
4BB-X/	.	4BB-X/	.	8BB-X/	8dd\
.	.	.	.	8BB-/	8dd\
!LO:TX:t=P:problem:kreska pseudotaktowa	!	!LO:TX:t=P:problem:kreska pseudotaktowa	!	!	!
4C/	.	4C/	.	16C/	16ccny\
.	.	.	.	16BB-/	16dd\
!	!	!	!	!LO:TX:t=P:problem:kreska pseudotaktowa	!
.	.	.	.	8C/	16cc\
.	.	.	.	.	16b/
*	*	*	*	*	*custos:a
!	!	!	!	!	!LO:LB:g=original
=7-	=7-	=7-	=7-	=7-	=7-
4D/	.	4D/	.	8D/	4a/
.	.	.	.	8D/	.
4E\	.	4E\	.	16E\	4r
.	.	.	.	16D/	.
.	.	.	.	8E\	.
2F\	.	2F\	.	8F\	8dd\
.	.	.	.	16A\	16cc\
.	.	.	.	16Bny\	16b/
.	.	.	.	8c\	8.a/
!	!	!	!	!LO:TX:t=P:problem:kreska pseudotaktowa	!
.	.	.	.	8A\	.
!	!	!	!	!	!LO:TX:t=P:problem:kreska pseudotaktowa
.	.	.	.	.	16ff\
=8-	=8-	=8-	=8-	=8-	=8-
4G\	6 5	4G\	6 5	16G\	8.ee\
.	.	.	.	16A\	.
.	.	.	.	8B-X\	.
.	.	.	.	.	16dd\
4A\	#	4A\	#	4A\	8.cc#X\
.	.	.	.	.	16gg\
2D/	.	2D/	.	4D/	8ff\
.	.	.	.	.	16ff\
.	.	.	.	.	16gg\
.	.	.	.	4r	16aa\
.	.	.	.	.	8ff\
!	!	!	!	!	!LO:TX:t=P:problem:kreska pseudotaktowa
.	.	.	.	.	16ee\
*	*	*	*	*custos:C	*
!	!	!	!	!LO:LB:g=original	!
=9-	=9-	=9-	=9-	=9-	=9-
2BB-X/	5:6	2BB-X/	5:6	2r	8dd\
.	.	.	.	.	16gg\
.	.	.	.	.	16aa\
.	.	.	.	.	16bb-X\
.	.	.	.	.	8gg\
.	.	.	.	.	16ff\
!LO:TX:t=P:problem:kreska pseudotaktowa	!	!LO:TX:t=P:problem:kreska pseudotaktowa	!	!	!
2C/	.	2C/	.	8r	4ee\
.	.	.	.	16C/	.
.	.	.	.	16D/	.
!	!	!	!	!	!LO:TX:t=P:problem:kreska pseudotaktowa
.	.	.	.	16E\	4r
.	.	.	.	8C/	.
!	!	!	!	!LO:TX:t=P:problem:kreska pseudotaktowa	!
.	.	.	.	16BBny/	.
=10-	=10-	=10-	=10-	=10-	=10-
4AA/	.	4AA/	.	4AA/	8r
.	.	.	.	.	16aa\
.	.	.	.	.	16bbny\
4FF/	.	4FF/	.	4r	16ccc\
.	.	.	.	.	8aa\
.	.	.	.	.	16gg\
4DD/	.	4DD/	.	8D/	4ff\
.	.	.	.	16C/	.
.	.	.	.	16BB/	.
!	!	!	!	!	!LO:TX:t=P:problem:kreska pseudotaktowa
4FF/	.	4FF/	.	8.AA/	4r
!	!	!	!	!LO:TX:t=P:problem:kreska pseudotaktowa	!
.	.	.	.	16F\	.
*custos:GG	*	*custos:GG	*	*	*
!LO:LB:g=original	!	!LO:LB:g=original	!	!	!
=11-	=11-	=11-	=11-	=11-	=11-
4GG/	6:5	4GG/	6:5	8.E\	8r
.	.	.	.	.	8gg\
.	.	.	.	16D/	.
4AA/	#	4AA/	#	8.C#X/	16ee\
.	.	.	.	.	16dd\
!	!	!	!	!	!L
.	.	.	.	.	8ee\
.	.	.	.	16A\	.
*	*	*	*	*	*custos:ff
!	!	!	!	!	!LO:LB:g=original
4D/	.	4D/	.	8F\	8ff\
.	.	.	.	8D/	8ff\
!LO:TX:t=P:problem:kreska pseudotaktowa	!	!LO:TX:t=P:problem:kreska pseudotaktowa	!	!	!
4E\	.	4E\	.	16E\	16gg\
.	.	.	.	16D/	16ff\
!	!	!	!	!LO:TX:t=P:problem:kreska pseudotaktowa	!LO:TX:t=P:problem:kreska pseudotaktowa
.	.	.	.	8E\	8gg\
=12-	=12-	=12-	=12-	=12-	=12-
4F\	.	4F\	.	8F\	4gg\
.	.	.	.	8F\	.
4G\	.	4G\	.	16G\	4r
.	.	.	.	16F\	.
.	.	.	.	8G\	.
4A\	.	4A\	.	4A\	8a/
.	.	.	.	.	16g/
.	.	.	.	.	16f/
4C/	6	4C/	6	4r	8.e/
!	!	!	!	!	!LO:TX:t=P:problem:kreska pseudotaktowa
.	.	.	.	.	16ccny\
=13-	=13-	=13-	=13-	=13-	=13-
4D/	6 5	4D/	6 5	2r	8.b/
.	.	.	.	.	16a/
4E\	#	4E\	#	.	8.g#X/
.	.	.	.	.	16ee\
4C/	.	4C/	.	8AA/	4cc\
.	.	.	.	16GG/	.
.	.	.	.	16FF/	.
!LO:TX:t=P:problem:kreska pseudotaktowa	!	!LO:TX:t=P:problem:kreska pseudotaktowa	!	!	!
4DD/	.	4DD/	.	8.EE/	8r
!	!	!	!	!	!LO:TX:t=P:problem:kreska pseudotaktowa
.	.	.	.	.	8ee\
.	.	.	.	16Cny/	.
=14-	=14-	=14-	=14-	=14-	=14-
4CC/	6:5	4CC/	6:5	8.BB/	16dd\
.	.	.	.	.	16ee\
.	.	.	.	.	16dd\
.	.	.	.	16AA/	16cc\
4EE/	#	4EE/	#	8.GG#X/	4b/
.	.	.	.	16E\	.
*	*	*	*	*custos:C	*
!	!	!	!	!LO:LB:g=original	!
4AA/	.	4AA/	.	8C/	8r
.	.	.	.	8AA/	8aa\
4BBny/	.	4BBny/	.	16BB/	16gg\
.	.	.	.	16AA/	16aa\
!	!	!	!	!LO:TX:t=P:problem:kreska pseudotaktowa	!
.	.	.	.	8BB/	16gg\
!	!	!	!	!	!LO:TX:t=P:problem:kreska pseudotaktowa
.	.	.	.	.	16ff\
=15-	=15-	=15-	=15-	=15-	=15-
4C/	.	4C/	.	8C/	8ee\
.	.	.	.	8C/	8ee\
4D/	.	4D/	.	16D/	16dd\
.	.	.	.	16C/	16ee\
.	.	.	.	8D/	16dd\
.	.	.	.	.	16cc\
!LO:TX:t=P:problem:kreska pseudotaktowa	!	!LO:TX:t=P:problem:kreska pseudotaktowa	!	!	!
2E\	-	2E\	-	8E\	4b/
.	.	.	.	16E\	.
.	.	.	.	16F\	.
.	.	.	.	16G\	4r
.	.	.	.	8E\	.
!	!	!	!	!LO:TX:t=P:problem:kreska pseudotaktowa	!
.	.	.	.	16D/	.
*	*	*	*	*	*custos:a
!	!	!	!	!	!LO:LB:g=original
=16-	=16-	=16-	=16-	=16-	=16-
4AA/	.	4AA/	.	8C/	8a/
.	.	.	.	16C/	16gny/
.	.	.	.	16D/	16f/
4C/	.	4C/	.	8E\	8.e/
.	.	.	.	8C/	.
.	.	.	.	.	16cc\
4D/	6:5	4D/	6:5	16D/	8.b/
.	.	.	.	16E\	.
.	.	.	.	8F\	.
.	.	.	.	.	16a/
4E\	#	4E\	#	4E\	8.g#X/
!	!	!	!	!	!LO:TX:t=P:problem:kreska pseudotaktowa
.	.	.	.	.	16ee\
=17-	=17-	=17-	=17-	=17-	=17-
4AA/	.	4AA/	.	8AA/	8cc\
.	.	.	.	8A\	8cc\
4BB/	.	4BB/	.	16G\	16dd\
.	.	.	.	16A\	16cc\
.	.	.	.	16G\	8dd\
.	.	.	.	16F\	.
4C/	.	4C/	.	8E\	8ee\
.	.	.	.	8c\	8ee\
4D/	.	4D/	.	16Bny\	16ff\
.	.	.	.	16c\	16ee\
!	!	!	!	!	!LO:TX:t=P:problem:kreska pseudotaktowa
.	.	.	.	16B\	8ff\
!	!	!	!	!LO:TX:t=P:problem:kreska pseudotaktowa	!
.	.	.	.	16A\	.
=18-	=18-	=18-	=18-	=18-	=18-
2E\	.	2E\	.	4G\	8gg\
.	.	.	.	.	16ee\
.	.	.	.	.	16ff\
.	.	.	.	4r	16gg\
.	.	.	.	.	8ee\
.	.	.	.	.	16dd\
*	*	*	*	*custos:A	*
!LO:TX:t=P:problem:kreska pseudotaktowa	!	!LO:TX:t=P:problem:kreska pseudotaktowa	!	!LO:LB:g=original	!
2F\	.	2F\	.	8r	4cc\
.	.	.	.	16A\	.
.	.	.	.	16B\	.
.	.	.	.	16c\	4r
.	.	.	.	8A\	.
!	!	!	!	!LO:TX:t=P:problem:kreska pseudotaktowa	!
.	.	.	.	16G\	.
=19-	=19-	=19-	=19-	=19-	=19-
4D/	.	4D/	.	4F\	8dd\
.	.	.	.	.	16cc\
.	.	.	.	.	16b/
4E\	6	4E\	6	4r	8.a/
.	.	.	.	.	16ff\
4F\	6:5	4F\	6:5	2r	8.ee\
.	.	.	.	.	16dd\
4A\	#	4A\	#	.	8.cc#X\
.	.	.	.	.	16gg\
*	*	*	*	*	*custos:ff
!	!	!	!	!	!LO:LB:g=original
=20-	=20-	=20-	=20-	=20-	=20-
4D/	.	4D/	.	8D/	4ff\
.	.	.	.	16C/	.
.	.	.	.	16BB/	.
4FF/	.	4FF/	.	8.AA/	8r
.	.	.	.	.	8aa\
.	.	.	.	16F\	.
4GG/	.	4GG/	.	8.E\	16gg\
.	.	.	.	.	16aa\
.	.	.	.	.	16gg\
.	.	.	.	16D/	16ff\
!LO:TX:t=P:problem:kreska pseudotaktowa	!	!LO:TX:t=P:problem:kreska pseudotaktowa	!	!	!LO:TX:t=P:problem:kreska pseudotaktowa
4AA/	#	4AA/	#	8.C#X/	4ee\
!	!	!	!	!LO:TX:t=P:problem:kreska pseudotaktowa	!
.	.	.	.	16A\	.
=21-	=21-	=21-	=21-	=21-	=21-
4D/	.	4D/	.	8F\	8r
.	.	.	.	8D/	8dd\
4E\	.	4E\	.	16E\	16ccny\
.	.	.	.	16D/	16dd\
.	.	.	.	8E\	16cc\
.	.	.	.	.	16b/
4F\	.	4F\	.	8F\	8a/
.	.	.	.	8F\	8aa\
4G\	.	4G\	.	16G\	16gg\
.	.	.	.	16F\	16aa\
!	!	!	!	!LO:TX:t=P:problem:kreska pseudotaktowa	!
.	.	.	.	8G\	16gg\
!	!	!	!	!	!LO:TX:t=P:problem:kreska pseudotaktowa
.	.	.	.	.	16ff\
*custos:A	*	*custos:A	*	*	*
!LO:LB:g=original	!	!LO:LB:g=original	!	!	!
=22-	=22-	=22-	=22-	=22-	=22-
2A\	.	2A\	.	8A\	8ee\
.	.	.	.	16A\	16cc\
.	.	.	.	16B\	16dd\
.	.	.	.	16c\	16ee\
.	.	.	.	8A\	8cc\
.	.	.	.	16G\	16b/
2F\	.	2F\	.	8F\	8a/
.	.	.	.	16F\	16a/
.	.	.	.	16G\	16b/
.	.	.	.	16A\	16cc\
.	.	.	.	8F\	8a/
!	!	!	!	!	!LO:TX:t=P:problem:kreska pseudotaktowa
.	.	.	.	16E\	16gny/
*	*	*	*	*custos:D	*
!	!	!	!	!LO:LB:g=original	!
=23-	=23-	=23-	=23-	=23-	=23-
2D/	.	2D/	.	8D/	8f/
.	.	.	.	16D/	16ff\
.	.	.	.	16E\	16gg\
.	.	.	.	16F\	16aa\
.	.	.	.	8D/	8ff\
.	.	.	.	16Cny/	16ee\
2BB-X/	.	2BB-X/	.	8BB-X/	4dd\
.	.	.	.	16BB-/	.
.	.	.	.	16C/	.
.	.	.	.	16D/	4r
.	.	.	.	8BB-X/	.
.	.	.	.	16AA/	.
*	*	*	*	*	*custos:dd
!	!	!	!	!	!LO:LB:g=original
=24-	=24-	=24-	=24-	=24-	=24-
2GG/	-	2GG/	-	8GGny/	8dd\
.	.	.	.	16G\	16b-X/
.	.	.	.	16A\	16a/
.	.	.	.	8B-X\	8.g/
.	.	.	.	8GG/	.
.	.	.	.	.	16gg\
2AA/	#	2AA/	#	4.AA/	8.ee\
.	.	.	.	.	16dd\
.	.	.	.	.	8.cc#X\
.	.	.	.	8AA/	.
!	!	!	!	!	!LO:TX:t=P:problem:kreska pseudotaktowa
.	.	.	.	.	16gg\
=25-	=25-	=25-	=25-	=25-	=25-
8D/	.	8D/	.	8D/	8ff\
8F\	6	8F\	6	8F\	16dd\
.	.	.	.	.	16ccny\
8G\	-	8G\	-	8G\	8b-X/
8A\	6	8A\	6	8A\	16a/
.	.	.	.	.	16f/
8A\	6:5	8A\	6:5	4.B-X\	8g/
4B-X\	.	4B-X\	.	.	16d/
.	.	.	.	.	16e/
.	.	.	.	.	4.f/
8F\	.	8F\	.	16FF/	.
.	.	.	.	16GG/	.
=26-	=26-	=26-	=26-	=26-	=26-
1A	6:5 #:4#r	1A	6:5 #:4#r	1AA	.
.	.	.	.	.	8e/
.	.	.	.	.	8e/
.	.	.	.	.	8d/
.	.	.	.	.	2e/
=27-	=27-	=27-	=27-	=27-	=27-
!LO:TX:t=P:problem:kreska pseudotaktowa	!	!LO:TX:t=P:problem:kreska pseudotaktowa	!	!LO:TX:t=P:problem:kreska pseudotaktowa	!LO:TX:t=P:problem:kreska pseudotaktowa
1D;	.	1D;	.	1DD	1d
=28-	=28-	=28-	=28-	=28-	=28-
!LO:TX:b:i:t=adagio.	!	!LO:TX:b:i:t=adagio.	!	!LO:TX:b:i:t=adagio.	!
2D/	.	2D/	.	1r	4r
!	!	!	!	!	!LO:TX:b:i:t=adagio.
.	.	.	.	.	4dd\
4E\	6	4E\	6	.	8cc\
.	.	.	.	.	8cc\
4F#X\	5	4F#X\	5	.	8.cc\
.	.	.	.	.	16dd\
=29-	=29-	=29-	=29-	=29-	=29-
4G\	-	4G\	-	2r	4.b-X/
4GG/	.	4GG/	.	.	.
.	.	.	.	.	8b-/
!LO:TX:t=P:problem:kreska pseudotaktowa	!	!LO:TX:t=P:problem:kreska pseudotaktowa	!	!	!
2D/	.	2D/	.	4r	4a/
.	.	.	.	4D/	8r
.	.	.	.	.	8ff\
*	*	*	*	*	*custos:ee
!	!	!	!	!	!LO:LB:g=original
=30-	=30-	=30-	=30-	=30-	=30-
2C/	5:6	2C/	5:6	8C/	8.ee\
.	.	.	.	8C/	.
.	.	.	.	.	32ff\
.	.	.	.	.	32gg\
.	.	.	.	8.C/	8aa\
.	.	.	.	.	8a/
.	.	.	.	16D/	.
2BB-X/	7:6	2BB-X/	7:6	4.BB-X/	4.a/
.	.	.	.	8BB-/	8g/
*	*	*	*	*custos:AA	*
!	!	!	!	!LO:LB:g=original	!
=31-	=31-	=31-	=31-	=31-	=31-
4AA/	.	4AA/	.	4AA/	4a/
4A\	.	4A\	.	8r	4r
.	.	.	.	8A\	.
4Fny\	.	4Fny\	.	8.F\	4r
.	.	.	.	32G\	.
.	.	.	.	32A\	.
!LO:TX:t=P:problem:kreska pseudotaktowa	!	!LO:TX:t=P:problem:kreska pseudotaktowa	!	!	!
4B-X\	.	4B-X\	.	8B-X\	8r
!	!	!	!	!LO:TX:t=P:problem:kreska pseudotaktowa	!LO:TX:t=P:problem:kreska pseudotaktowa
.	.	.	.	8B-\	8gg\
=32-	=32-	=32-	=32-	=32-	=32-
4A\	6	4A\	6	8.A\	8ff\
.	.	.	.	.	8ff\
.	.	.	.	32Bny\	.
.	.	.	.	32c\	.
[4D/	.	[4D/	.	8d\	8.ff\
.	.	.	.	8D/	.
.	.	.	.	.	16gg\
4.D/]	.	4.D/]	.	4.D/	4.ee\
!	!	!	!	!LO:TX:t=P:problem:kreska pseudotaktowa	!
8C#X/	.	8C#X/	.	8C#X/	8ee\
=33-	=33-	=33-	=33-	=33-	=33-
4D/	.	4D/	.	4D/	4dd\
4B-X\	.	4B-X\	.	8r	8r
.	.	.	.	8B-X\	8dd\
2A\	5:6	2A\	5:6	8A\	8.cc\
.	.	.	.	8A\	.
.	.	.	.	.	32dd\
.	.	.	.	.	32ee\
.	.	.	.	8.A\	8ff\
.	.	.	.	.	8f/
.	.	.	.	16B-\	.
*custos:G	*	*custos:G	*	*	*
!LO:LB:g=original	!	!LO:LB:g=original	!	!	!
=34-	=34-	=34-	=34-	=34-	=34-
2G\	- 7:6	2G\	- 7:6	4.G\	4.f/
.	.	.	.	8G\	8e/
!	!	!	!	!	!LO:TX:t=P:problem:kreska pseudotaktowa
2F\	.	2F\	.	4F\	2f/
.	.	.	.	8r	.
!	!	!	!	!LO:TX:t=P:problem:kreska pseudotaktowa	!
.	.	.	.	8F\	.
=35-	=35-	=35-	=35-	=35-	=35-
4Cny/	.	4Cny/	.	8.E\	2r
.	.	.	.	32E\	.
.	.	.	.	32F\	.
4AA/	.	4AA/	.	8G\	.
.	.	.	.	8AA/	.
!LO:TX:t=P:problem:kreska pseudotaktowa	!	!LO:TX:t=P:problem:kreska pseudotaktowa	!	!	!
2BB-X/	7:6	2BB-X/	7:6	4.AA/	4r
.	.	.	.	.	4dd\
.	.	.	.	8GG/	.
=36-	=36-	=36-	=36-	=36-	=36-
2AA/	-	2AA/	-	4AA/	8cc\
.	.	.	.	.	8cc\
.	.	.	.	8r	8.cc\
.	.	.	.	8A\	.
.	.	.	.	.	16dd\
*	*	*	*	*custos:D	*
!	!	!	!	!LO:LB:g=original	!
4D/	6	4D/	6	8.D/	4.b-X/
.	.	.	.	32E\	.
.	.	.	.	32F\	.
!LO:TX:t=P:problem:kreska pseudotaktowa	!	!LO:TX:t=P:problem:kreska pseudotaktowa	!	!	!
[4GG/	-	[4GG/	-	8G\	.
!	!	!	!	!LO:TX:t=P:problem:kreska pseudotaktowa	!
.	.	.	.	8GG/	8b-/
*	*	*	*	*	*custos:a
!	!	!	!	!	!LO:LB:g=original
=37-	=37-	=37-	=37-	=37-	=37-
4.GG/]	2	4.GG/]	2	4.GG/	2a/
8FF#X/	.	8FF#X/	.	8FF#X/	.
4GG/	.	4GG/	.	4GG/	4r
4G\	.	4G\	.	4G\	8r
!	!	!	!	!	!LO:TX:t=P:problem:kreska pseudotaktowa
.	.	.	.	.	8b-X/
=38-	=38-	=38-	=38-	=38-	=38-
2F\	5:6	2F\	5:6	8F\	8.a/
.	.	.	.	8F\	.
.	.	.	.	.	32bny/
.	.	.	.	.	32cc\
.	.	.	.	8.F\	8dd\
.	.	.	.	.	8d/
.	.	.	.	16G\	.
2E\	7:6 #	2E\	7:6 #	4.E\	4.d/
!	!	!	!	!	!LO:TX:t=P:problem:kreska pseudotaktowa
.	.	.	.	8E\	8c#X/
=39-	=39-	=39-	=39-	=39-	=39-
2D/	.	2D/	.	4.D/	4d/
.	.	.	.	.	8r
.	.	.	.	8D/	8ff\
!LO:TX:t=P:problem:kreska pseudotaktowa	!	!LO:TX:t=P:problem:kreska pseudotaktowa	!	!	!
2C/	5:6	2C/	5:6	8Cny/	8.ee\
.	.	.	.	8C/	.
.	.	.	.	.	32ff\
.	.	.	.	.	32gg\
.	.	.	.	8.C/	8aa\
.	.	.	.	.	8a/
.	.	.	.	16D/	.
=40-	=40-	=40-	=40-	=40-	=40-
2BB-X/	7:6	2BB-X/	7:6	4.BB-X/	4.a/
.	.	.	.	8BB-/	8g/
[2AA/	.	[2AA/	.	1AA	4a/
.	.	.	.	.	8r
.	.	.	.	.	8aa\
=41-	=41-	=41-	=41-	=41-	=41-
1AA]	6:5 #:4#r	1AA]	6:5 #:4#r	.	8ff\
.	.	.	.	.	8ff\
.	.	.	.	.	8.ff\
.	.	.	.	.	16gg\
.	.	.	.	2AA/	4.ee\
.	.	.	.	.	8ee\
*	*	*	*	*	*custos:dd
!	!	!	!	!	!LO:PB:g=original
=42-	=42-	=42-	=42-	=42-	=42-
1D	.	1D	.	1D	1dd
=43-	=43-	=43-	=43-	=43-	=43-
*M3/2	*	*M3/2	*	*M3/2	*M3/2
!LO:TX:b:i:t=allegro.	!	!LO:TX:b:i:t=allegro.	!	!LO:TX:b:i:t=allegro.	!LO:TX:b:i:t=Allegro.
1.D	.	1.D	.	4r	00.r
.	.	.	.	4D/	.
.	.	.	.	4F\	.
.	.	.	.	4D/	.
.	.	.	.	4D/	.
.	.	.	.	8C/	.
.	.	.	.	8BBny/	.
*	*	*	*	*custos:AA	*
!	!	!	!	!LO:LB:g=original	!
=44-	=44-	=44-	=44-	=44-	=44-
1.AA	.	1.AA	.	4AA/	.
.	.	.	.	4A\	.
.	.	.	.	4c\	.
.	.	.	.	4A\	.
.	.	.	.	4A\	.
.	.	.	.	8G\	.
!	!	!	!	!LO:TX:t=P:problem:kreska pseudotaktowa	!
.	.	.	.	8F\	.
=45-	=45-	=45-	=45-	=45-	=45-
1.C	.	1.C	.	4E\	.
.	.	.	.	4C/	.
.	.	.	.	4E\	.
.	.	.	.	4C/	.
.	.	.	.	4C/	.
.	.	.	.	8BB/	.
!	!	!	!	!LO:TX:t=P:problem:kreska pseudotaktowa	!
.	.	.	.	8AA/	.
=46-	=46-	=46-	=46-	=46-	=46-
1.GG	-	1.GG	-	4GG/	.
.	.	.	.	4G\	.
.	.	.	.	4B-X\	.
.	.	.	.	4G\	.
.	.	.	.	4G\	.
.	.	.	.	8F\	.
.	.	.	.	8E\	.
=47-	=47-	=47-	=47-	=47-	=47-
1.D	5:6	1.D	5:6	2D/	4dd\
.	.	.	.	.	4dd\
.	.	.	.	2r	2.a/
.	.	.	.	2r	.
.	.	.	.	.	4b-X/
=48-	=48-	=48-	=48-	=48-	=48-
1.C	.	1.C	.	00.r	4cc\
.	.	.	.	.	4cc\
.	.	.	.	.	2.g/
.	.	.	.	.	4a/
=49-	=49-	=49-	=49-	=49-	=49-
1.BB-X	.	1.BB-X	.	.	4b-X/
.	.	.	.	.	4dd\
.	.	.	.	.	4ff\
.	.	.	.	.	4dd\
.	.	.	.	.	4dd\
.	.	.	.	.	8cc\
.	.	.	.	.	8b-/
=50-	=50-	=50-	=50-	=50-	=50-
1.D	.	1.D	.	.	4a/
.	.	.	.	.	4ff\
.	.	.	.	.	4aa\
.	.	.	.	.	4ff\
.	.	.	.	.	4ff\
.	.	.	.	.	8ee\
!	!	!	!	!	!LO:TX:t=P:problem:kreska pseudotaktowa
.	.	.	.	.	8dd\
=51-	=51-	=51-	=51-	=51-	=51-
1.F	.	1.F	.	.	4cc\
.	.	.	.	.	4aa\
.	.	.	.	.	4bb\
.	.	.	.	.	4aa\
.	.	.	.	.	4aa\
.	.	.	.	.	8gg\
.	.	.	.	.	8ff\
!	!	!	!	!LO:TX:t=P:problem: 2x custos	!
*custos:A	*	*custos:A	*	*custos:A	*
!LO:LB:g=original	!	!LO:LB:g=original	!	!LO:PB:g=original	!
=52-	=52-	=52-	=52-	=52-	=52-
2A\	.	2A\	.	4A\	2ee\
.	.	.	.	4A\	.
2.E\	.	2.E\	.	2.E\	2r
.	.	.	.	.	2r
4F\	.	4F\	.	4F\	.
*	*	*	*	*	*custos:dd
!	!	!	!	!	!LO:LB:g=original
=53-	=53-	=53-	=53-	=53-	=53-
2G\	.	2G\	.	4G\	4r
.	.	.	.	4G\	4dd\
2.D/	.	2.D/	.	2.D/	4ff\
.	.	.	.	.	4dd\
.	.	.	.	.	4dd\
!	!	!	!	!LO:TX:t=P:problem:kreska pseudotaktowa	!
4E\	.	4E\	.	4E\	8cc\
.	.	.	.	.	8bny/
=54-	=54-	=54-	=54-	=54-	=54-
2F\	.	2F\	.	4F\	4a/
.	.	.	.	4A\	4ff\
2.AA/	.	2.AA/	.	4c\	4aa\
.	.	.	.	4A\	4ff\
.	.	.	.	4A\	4ff\
!LO:TX:t=P:problem:kreska pseudotaktowa	!	!LO:TX:t=P:problem:kreska pseudotaktowa	!	!	!
4BB-X/	.	4BB-X/	.	8G\	8ee\
!	!	!	!	!	!LO:TX:t=P:problem:kreska pseudotaktowa
.	.	.	.	8F\	8dd\
=55-	=55-	=55-	=55-	=55-	=55-
2C/	.	2C/	.	4E\	2cc\
.	.	.	.	4G\	.
2.GG/	.	2.GG/	.	4B-X\	2r
.	.	.	.	4G\	.
.	.	.	.	4G\	2r
4AA/	.	4AA/	.	8F\	.
.	.	.	.	8E\	.
=56-	=56-	=56-	=56-	=56-	=56-
1.BB-X	.	1.BB-X	.	2D/	4r
.	.	.	.	.	4b-X/
.	.	.	.	2r	4dd\
.	.	.	.	.	4b-X/
!	!	!	!	!LO:TX:t=P:problem:kreska pseudotaktowa	!
.	.	.	.	2r	4b-/
.	.	.	.	.	8a/
.	.	.	.	.	8g/
=57-	=57-	=57-	=57-	=57-	=57-
2D/	.	2D/	.	4D/	2f/
.	.	.	.	4D/	.
2.AA/	.	2.AA/	.	2.AA/	2r
!	!	!	!	!	!LO:TX:t=P:problem:kreska pseudotaktowa
.	.	.	.	.	2r
4BB-X/	.	4BB-X/	.	4BB/	.
=58-	=58-	=58-	=58-	=58-	=58-
2C/	.	2C/	.	4C/	4r
.	.	.	.	4C/	4gg\
2.GG/	.	2.GG/	.	2.GG/	4bb-X\
.	.	.	.	.	4gg\
.	.	.	.	.	4gg\
!LO:TX:t=P:problem:kreska pseudotaktowa	!	!LO:TX:t=P:problem:kreska pseudotaktowa	!	!	!
4AA/	.	4AA/	.	4AA/	8ff\
.	.	.	.	.	8ee\
=59-	=59-	=59-	=59-	=59-	=59-
1.BB-X	.	1.BB-X	.	4BB-X/	4dd\
.	.	.	.	4BB-/	4dd\
.	.	.	.	4D/	4ff\
.	.	.	.	4BB-X/	4dd\
*	*	*	*	*custos:BB-	*
!	!	!	!	!LO:LB:g=original	!
.	.	.	.	4BB-/	4dd\
.	.	.	.	8AA/	8cc\
.	.	.	.	8GG/	8bny/
=60-	=60-	=60-	=60-	=60-	=60-
1.FFny	.	1.FFny	.	4FFny/	2a/
.	.	.	.	4F\	.
.	.	.	.	4A\	2r
.	.	.	.	4F\	.
.	.	.	.	4F\	2r
.	.	.	.	8E\	.
.	.	.	.	8D/	.
*	*	*	*	*	*custos:ccc
!	!	!	!	!	!LO:LB:g=original
=61-	=61-	=61-	=61-	=61-	=61-
1.C	.	1.C	.	2C/	4ccc\
.	.	.	.	.	4ccc\
.	.	.	.	2r	2.gg\
!	!	!	!	!LO:TX:t=P:problem:kreska pseudotaktowa	!
.	.	.	.	2r	.
.	.	.	.	.	4aa\
=62-	=62-	=62-	=62-	=62-	=62-
2G\	.	2G\	.	4G\	4bb-X\
.	.	.	.	4G\	4bb-\
2.D/	.	2.D/	.	2.D/	2.ff\
4E\	.	4E\	.	4E\	4gg\
=63-	=63-	=63-	=63-	=63-	=63-
4F\	.	4F\	.	4F\	4aa\
4D/	.	4D/	.	4D/	4ff\
2.D/	.	2.D/	.	4F\	4aa\
.	.	.	.	4D/	4ff\
.	.	.	.	4D/	4ff\
8C/	.	8C/	.	8C/	8ee\
8BBny/	.	8BBny/	.	8BBny/	8dd\
=64-	=64-	=64-	=64-	=64-	=64-
1.AA	.	1.AA	.	2AA/	4cc\
.	.	.	.	.	4a/
.	.	.	.	2r	4cc\
.	.	.	.	.	4a/
!	!	!	!	!LO:TX:t=P:problem:kreska pseudotaktowa	!
.	.	.	.	2r	4a/
.	.	.	.	.	8g/
.	.	.	.	.	8f/
*custos:C	*	*custos:C	*	*	*
!LO:LB:g=original	!	!LO:LB:g=original	!	!	!
=65-	=65-	=65-	=65-	=65-	=65-
2C/	.	2C/	.	4c\	2e/
.	.	.	.	4c\	.
2.G\	.	2.G\	.	2.G\	2r
.	.	.	.	.	2r
4A\	.	4A\	.	4A\	.
=66-	=66-	=66-	=66-	=66-	=66-
2B-X\	.	2B-X\	.	4B-X\	1.r
.	.	.	.	4B-\	.
2.F\	.	2.F\	.	2.F\	.
4G\	.	4G\	.	4G\	.
=67-	=67-	=67-	=67-	=67-	=67-
1.A	.	1.A	.	1A	4gg\
.	.	.	.	.	4gg\
.	.	.	.	.	2.ee\
.	.	.	.	2r	.
.	.	.	.	.	4ff\
*	*	*	*	*custos:B-	*
!	!	!	!	!LO:LB:g=original	!
=68-	=68-	=68-	=68-	=68-	=68-
1.G	-	1.G	-	4r	4gg\
.	.	.	.	4B-X\	4gg\
.	.	.	.	4d\	2.dd\
.	.	.	.	4B-X\	.
.	.	.	.	4B-\	.
.	.	.	.	8A\	4ee\
.	.	.	.	8G\	.
*	*	*	*	*	*custos:ff
!	!	!	!	!	!LO:LB:g=original
=69-	=69-	=69-	=69-	=69-	=69-
1.F	.	1.F	.	1F	4ff\
.	.	.	.	.	4ff\
.	.	.	.	.	4aa\
.	.	.	.	.	4ff\
.	.	.	.	2r	4ff\
.	.	.	.	.	8ee\
.	.	.	.	.	8dd\
=70-	=70-	=70-	=70-	=70-	=70-
2A\	.	2A\	.	4A\	4cc\
.	.	.	.	4A\	4cc\
2.E\	.	2.E\	.	2.E\	4ee\
.	.	.	.	.	4cc\
.	.	.	.	.	4cc\
!LO:TX:t=P:problem:kreska pseudotaktowa	!	!LO:TX:t=P:problem:kreska pseudotaktowa	!	!	!
4F\	.	4F\	.	4F\	8b/
!	!	!	!	!	!LO:TX:t=P:problem:kreska pseudotaktowa
.	.	.	.	.	8a/
=71-	=71-	=71-	=71-	=71-	=71-
2G\	.	2G\	.	4G\	4g/
.	.	.	.	4G\	4dd\
2.D/	.	2.D/	.	2.D/	4ff\
.	.	.	.	.	4dd\
.	.	.	.	.	4dd\
!	!	!	!	!LO:TX:t=P:problem:kreska pseudotaktowa	!
4E\	.	4E\	.	4E\	8cc\
.	.	.	.	.	8b/
=72-	=72-	=72-	=72-	=72-	=72-
1.F	.	1.F	.	4F\	2a/
.	.	.	.	4F\	.
.	.	.	.	4A\	2r
.	.	.	.	4F\	.
!	!	!	!	!	!LO:TX:t=P:problem:kreska pseudotaktowa
.	.	.	.	4F\	2r
.	.	.	.	8E\	.
.	.	.	.	8D/	.
=73-	=73-	=73-	=73-	=73-	=73-
2C/	.	2C/	.	4C/	4r
.	.	.	.	4c\	4gg\
2.G\	.	2.G\	.	2.G\	4bb-X\
.	.	.	.	.	4gg\
.	.	.	.	.	4gg\
4A\	.	4A\	.	4A\	8ff\
.	.	.	.	.	8ee\
=74-	=74-	=74-	=74-	=74-	=74-
4B-X\	.	4B-X\	.	4B-X\	4dd\
4D/	.	4D/	.	4D/	4ff\
2.D/	.	2.D/	.	4F\	4aa\
.	.	.	.	4D/	4ff\
.	.	.	.	4D/	4ff\
8C/	.	8C/	.	8C/	8ee\
!	!	!	!	!LO:TX:t=P:problem:kreska pseudotaktowa	!
8BB/	.	8BB/	.	8BB/	8dd\
*	*	*	*	*	*custos:cc
!	!	!	!	!	!LO:LB:g=original
=75-	=75-	=75-	=75-	=75-	=75-
2AA/	.	2AA/	.	4AA/	4cc\
.	.	.	.	4C/	4aa\
2.AA/	.	2.AA/	.	2.AA/	4ccc\
.	.	.	.	.	4aa\
.	.	.	.	.	4aa\
4BB/	.	4BB/	.	4BB/	8gg\
.	.	.	.	.	8ff\
*	*	*	*	*custos:C	*
!	!	!	!	!LO:LB:g=original	!
=76-	=76-	=76-	=76-	=76-	=76-
!LO:TX:t=P:problem:kreska pseudotaktowa	!	!LO:TX:t=P:problem:kreska pseudotaktowa	!	!	!
1.C	.	1.C	.	4C/	4ee\
.	.	.	.	4C/	4cc\
.	.	.	.	4E\	2.g/
.	.	.	.	4C/	.
.	.	.	.	4C/	.
!	!	!	!	!	!LO:TX:t=P:problem:kreska pseudotaktowa
.	.	.	.	8BB/	4a/
!	!	!	!	!LO:TX:t=P:problem:kreska pseudotaktowa	!
.	.	.	.	8AA/	.
=77-	=77-	=77-	=77-	=77-	=77-
2GG/	-	2GG/	-	4GG/	4b-X/
.	.	.	.	4G\	4b-/
2.GG/	.	2.GG/	.	2.GG/	4dd\
.	.	.	.	.	4b-/
.	.	.	.	.	4b-/
4AA/	.	4AA/	.	4AA/	8a/
.	.	.	.	.	8g/
=78-	=78-	=78-	=78-	=78-	=78-
1.BB-X	.	1.BB-X	.	4BB-X/	4f/
.	.	.	.	4BB-/	4bb-X\
.	.	.	.	4D/	2.ff\
.	.	.	.	4BB-X/	.
.	.	.	.	4BB-/	.
!	!	!	!	!	!LO:TX:t=P:problem:kreska pseudotaktowa
.	.	.	.	8AA/	4gg\
.	.	.	.	8GG/	.
*custos:FF	*	*custos:FF	*	*	*
!LO:LB:g=original	!	!LO:LB:g=original	!	!	!
=79-	=79-	=79-	=79-	=79-	=79-
2FF/	.	2FF/	.	4FF/	4aa\
.	.	.	.	4F\	4aa\
2.FF/	.	2.FF/	.	2.FF/	4bbny\
.	.	.	.	.	4aa\
.	.	.	.	.	4aa\
4GG/	.	4GG/	.	4GG/	8gg\
.	.	.	.	.	8ff\
=80-	=80-	=80-	=80-	=80-	=80-
4AA/	.	4AA/	.	4AA/	2ee\
4E\	.	4E\	.	4E\	.
2F\	.	2F\	.	4A\	4cc\
.	.	.	.	4F\	4a/
2D/	6	2D/	6	4F\	2dd\
.	.	.	.	8E\	.
.	.	.	.	8D/	.
*	*	*	*	*	*custos:ee
!	!	!	!	!	!LO:LB:g=original
=81-	=81-	=81-	=81-	=81-	=81-
4C/	.	4C/	.	4C/	4ee\
4AA/	.	4AA/	.	4AA/	4ee\
2FF/	.	2FF/	.	2FF/	4gg\
.	.	.	.	.	4ff\
2DD/	.	2DD/	.	2DD/	4ff\
.	.	.	.	.	8ee\
.	.	.	.	.	8dd\
=82-	=82-	=82-	=82-	=82-	=82-
1.AA	4#r	1.AA	4#r	1.AA	1.ee
=83-	=83-	=83-	=83-	=83-	=83-
1.DD	.	1.DD	.	1.DD	1.dd
=84-	=84-	=84-	=84-	=84-	=84-
*M2/2	*	*M2/2	*	*M2/2	*M2/2
*met(C|)	*	*met(C|)	*	*met(C|)	*met(C|)
!LO:TX:b:i:t=Largo.	!	!LO:TX:b:i:t=Largo.	!	!LO:TX:b:i:t=Largo.	!LO:TX:b:i:t=Largo.
2D/	.	2D/	.	0r	16a/
.	.	.	.	.	16dd\
.	.	.	.	.	16a/
.	.	.	.	.	16f/
.	.	.	.	.	16d/
.	.	.	.	.	16f/
.	.	.	.	.	16a/
.	.	.	.	.	16dd\
2E\	6 #	2E\	6 #	.	8cc#X\
.	.	.	.	.	4ee\
.	.	.	.	.	16dd\
!	!	!	!	!	!LO:TX:t=P:problem:kreska pseudotaktowa
.	.	.	.	.	16cc#X\
=85-	=85-	=85-	=85-	=85-	=85-
4F\	6	4F\	6	.	16dd\
.	.	.	.	.	16a/
.	.	.	.	.	16dd\
.	.	.	.	.	16ee\
4FF/	7 3	4FF/	7 3	.	4.ff\
2GG/	6 4	2GG/	6 4	.	.
.	.	.	.	.	8ee\
.	.	.	.	.	(16dd\
.	.	.	.	.	16ccny\)
.	.	.	.	.	(16dd\
.	.	.	.	.	16ee\)
*	*	*	*	*	*custos:cc
!	!	!	!	!	!LO:LB:g=original
=86-	=86-	=86-	=86-	=86-	=86-
2AA/	5 3	2AA/	5 3	16E\	4.cc\
.	.	.	.	16A\	.
.	.	.	.	16E\	.
.	.	.	.	16C/	.
.	.	.	.	16AA/	.
.	.	.	.	16C/	.
.	.	.	.	16E\	8cc\
.	.	.	.	16A\	.
!LO:TX:t=P:problem:kreska pseudotaktowa	!	!LO:TX:t=P:problem:kreska pseudotaktowa	!	!	!
2E\	#	2E\	#	8G#X\	2bny/
.	.	.	.	4A\	.
.	.	.	.	16A\	.
.	.	.	.	16G#\	.
=87-	=87-	=87-	=87-	=87-	=87-
2C/	6	2C/	6	16A\	2r
.	.	.	.	16E\	.
.	.	.	.	16A\	.
.	.	.	.	16Bny\	.
.	.	.	.	4.c\	.
2D/	7:6:5	2D/	7:6:5	.	4r
.	.	.	.	8B\	.
.	.	.	.	(<16A\	4.dd\
.	.	.	.	16Gny\)	.
.	.	.	.	(<16A\	.
!	!	!	!	!LO:TX:t=P:problem:kreska pseudotaktowa	!
.	.	.	.	16B\)	.
=88-	=88-	=88-	=88-	=88-	=88-
!LO:TX:t=P:problem:kreska pseudotaktowa	!	!LO:TX:t=P:problem:kreska pseudotaktowa	!	!	!
1E	7:6:5 #:4#r	1E	7:6:5 #:4#r	4G#X\	.
.	.	.	.	.	8cc\
.	.	.	.	4A\	(<16cc\
.	.	.	.	.	16b/
.	.	.	.	.	(<16cc\)
.	.	.	.	.	16dd\
.	.	.	.	(<16A\	4b/)
.	.	.	.	16G#\)	.
.	.	.	.	(<16A\	.
.	.	.	.	16B\)	.
!	!	!	!	!LO:TX:t=P:problem:kreska pseudotaktowa	!
.	.	.	.	4G#X\	(16b/
.	.	.	.	.	16a/
.	.	.	.	.	(<16b/)
.	.	.	.	.	16cc\
=89-	=89-	=89-	=89-	=89-	=89-
2AA/	.	2AA/	.	4A\	2a/)
.	.	.	.	4.A\	.
!	!	!	!	!	!LO:TX:t=P:problem:kreska pseudotaktowa
4BBny/	9:8	4BBny/	9:8	.	2r
.	.	.	.	8Gny\	.
4C#X/	.	4C#X/	.	(<16G\	.
.	.	.	.	16F\)	.
.	.	.	.	(<16G\	.
.	.	.	.	16A\)	.
*	*	*	*	*custos:F	*
!	!	!	!	!LO:LB:g=original	!
=90-	=90-	=90-	=90-	=90-	=90-
2D/	.	2D/	.	4F\	4r
.	.	.	.	4.F\	4.aa\
2C#X/	6:5 4:3	2C#X/	6:5 4:3	.	.
.	.	.	.	8E\	8gg\
.	.	.	.	(<16E\	(<16gg\
.	.	.	.	16D/)	16ff\)
.	.	.	.	(<16E\	(<16gg\
.	.	.	.	16F\)	16aa\)
=91-	=91-	=91-	=91-	=91-	=91-
4D/	.	4D/	.	16D/	8.ff\
.	.	.	.	16A\	.
.	.	.	.	16G\	.
.	.	.	.	16F\	16aa\
4BB-X/	.	4BB-X/	.	16G\	4bb-X\
.	.	.	.	16D/	.
.	.	.	.	16C/	.
.	.	.	.	16BBny/	.
4Cny/	.	4Cny/	.	16C/	8.gg\
.	.	.	.	16G\	.
.	.	.	.	16F\	.
.	.	.	.	16E\	16gg\
!	!	!	!	!	!LO:TX:t=P:problem:kreska pseudotaktowa
4AA/	.	4AA/	.	16F\	4gg\
.	.	.	.	16C/	.
.	.	.	.	16BB/	.
!	!	!	!	!LO:TX:t=P:problem:kreska pseudotaktowa	!
.	.	.	.	16AA/	.
*custos:BB-	*	*custos:BB-	*	*	*
!LO:LB:g=original	!	!LO:LB:g=original	!	!	!
=92-	=92-	=92-	=92-	=92-	=92-
4BB-X/	.	4BB-X/	.	16BB-X/	8.ff\
.	.	.	.	16F\	.
.	.	.	.	16E\	.
.	.	.	.	16D/	16ff\
4GG/	.	4GG/	.	16E\	4gg\
.	.	.	.	16BB-/	.
.	.	.	.	16AA/	.
.	.	.	.	16GG/	.
*	*	*	*	*	*custos:ee
!	!	!	!	!	!LO:LB:g=original
4AA/	#	4AA/	#	8.AA/	16r
.	.	.	.	.	16ee\
.	.	.	.	.	16dd\
.	.	.	.	16AA/	16cc#X\
!LO:TX:t=P:problem:kreska pseudotaktowa	!	!LO:TX:t=P:problem:kreska pseudotaktowa	!	!LO:TX:t=P:problem:kreska pseudotaktowa	!
4D/	#	4D/	#	4D/	16dd\
.	.	.	.	.	16a/
.	.	.	.	.	16g/
!	!	!	!	!	!LO:TX:t=P:problem:kreska pseudotaktowa
.	.	.	.	.	16f#X/
=93-	=93-	=93-	=93-	=93-	=93-
4GG/	.	4GG/	.	8.GG/	16g/
.	.	.	.	.	16dd\
.	.	.	.	.	16ccny\
.	.	.	.	16GG/	16b/
4C/	.	4C/	.	4C/	16cc\
.	.	.	.	.	16g/
.	.	.	.	.	16fny/
.	.	.	.	.	16e/
*	*	*	*	*custos:FF	*
!	!	!	!	!LO:LB:g=original	!
4FF/	.	4FF/	.	8.FF/	16f/
.	.	.	.	.	16cc\
.	.	.	.	.	16b/
.	.	.	.	16FF/	16a/
!	!	!	!	!LO:TX:t=P:problem:kreska pseudotaktowa	!
4BB-X/	.	4BB-X/	.	4BB-X/	16b-X/
.	.	.	.	.	16f/
.	.	.	.	.	16e/
.	.	.	.	.	16d/
=94-	=94-	=94-	=94-	=94-	=94-
2GG/	-	2GG/	-	2GG/	16g/
.	.	.	.	.	16b-X/
.	.	.	.	.	16a/
.	.	.	.	.	16g/
.	.	.	.	.	16dd\
.	.	.	.	.	16dd\
.	.	.	.	.	16cc\
.	.	.	.	.	16b-/
4GG/	-	4GG/	-	16r	16gg\
.	.	.	.	16G\	16bb-X\
.	.	.	.	16F\	16aa\
.	.	.	.	16E\	16gg\
4D/	-	4D/	-	16F\	16aa\
.	.	.	.	16D\	16ff\
.	.	.	.	16C/	16ee\
.	.	.	.	16BBny/	16dd\
*	*	*	*	*	*custos:ee
!	!	!	!	!	!LO:LB:g=original
=95-	=95-	=95-	=95-	=95-	=95-
1AA	#:4#r	1AA	#:4#r	1AA	16ee\
.	.	.	.	.	16cc#X\
.	.	.	.	.	16bny\
.	.	.	.	.	16a/
.	.	.	.	.	16dd\
.	.	.	.	.	16f/
.	.	.	.	.	16e/
.	.	.	.	.	16d/
.	.	.	.	.	2e/
=96-	=96-	=96-	=96-	=96-	=96-
!LO:N:vis=0	!	!LO:N:vis=0	!	!LO:N:vis=0	!LO:N:vis=0
1D;	.	1D;	.	1DD;	1d;
==	==	==	==	==	==
*-	*-	*-	*-	*-	*-
!!!system-decoration: s1,s2,s3,s4
!!!RDF**kern: > = above
!!!RDF**kern: < = below
!!!ENC: Anastazja Marusiak
!!!END: 2022-11-9
!!!ENC: Natalia Wrzos
!!!END: 2022-11-30
!!!YEC: Copyright 2022 Narodowy Instytut Fryderyka Chopina (https://polishscores.org)
!!!YEM: License CC-BY-4.0 (https://creativecommons.org/licenses/by/4.0)
